X:2233
T:Bruise Hill
T:Five Servants, The
T:Ballybunnion Polka, The
R:polka
Z:id:hn-polka-4
M:2/4
L:1/8
K:D
F>D FA|G>F GB|AB cd|e/d/c/e/ dA|B/A/B/c/ dB|A/B/A/G/ FA|GA/G/ FE|D2 D2:|
|:fA fA|f/g/f/e/ fa|e>f ed|e/f/e/d/ BA|A/B/A/G/ FA|A/B/A/G/ FA|GA/G/ FE|D2 D2:|


